X:0455
M:6/8
L:1/8
Q:3/8=120
K:G Dorian
     A>BA AGF         |cAc   def|cAA TAGF| G3     G2 ::
g   |fdd  gdd         |fdd   cAA|fdd  gdd| fdd   Td2
g   |fdd (aa/)(b/a/g/)|fdd   def|cAA TAGF| G3     G2 :|

